X: 19273
T: Ivory, The
R: reel
M: 4/4
K: Dmajor
|:AB (3cBA d2 de|fdAF G2 FG|Ad (3ddd AGFG|Adde cAde|
fa (3gfe fa (3gfe|fa (3gfe dcdf|(3efe dc AGFG|1 Addc d4:|2 Addc d3e||
|:fa (3gfe d3 A|cege fddf|ef (3gfe dcdf|eAce cAce|
fa (3gfe d2 dA|cege fddf|AB (3cBA dcdf|1 eAce d3 e:|2 eAce d4||

